X:1
T:James Gibb editions
T:Psalm 142 (Becker) - Schütz
%%score [ ( 1 2 ) ( 3 4 ) ]
L:1/8
Q:1/4=98
M:2/2
K:F
V:1 treble nm="Soprano Alto"
V:2 treble 
V:3 bass nm="Tenor Bass"
V:4 bass 
V:1
"^Cornelius Becker\n(1561-1604)""^Psalm 142, SWV 247""^Heinrich Schütz\n(1585-1672)" B4 c4 | %1
w: ~Ich schrei|
w: ich fleh|
 d2 A4 A2 | G2 A2 B4 | B4 c4 | d2 _e4 c2 | =B4 c4 :|[M:2/2] c4 d4 | B2 B4 G2 | B2 c2 d4 | A4 B4 | %10
w: zu mei- nem|lie- ben Gott|und ruf|mit lau- ter|Stim- me,|ich will|so flei- ßig,|als ich kann,|vor ihm|
w: zum Herrn in|mei- ner Not,|zu ihm|stehn all mein|Sin- ne,|||||
 A2 G4 F2 | _E4 D4 | z2 d4 _e2 | c4 =B4 | z2 B2 c2 c2 | d2 d2 G4 | B4 c4 | d2 _e4 d2 | c8 | B8 |] %20
w: mein Herz aus-|schüt- ten,|flehn und|bit- ten,|er wird mich|nit ver- lan,|wird hel-|fen durch sein|Gü-|te.|
w: ||||||||||
V:2
 F4 C4 | F2 F4 F2 | D2 F2 F4 | G4 A4 | F2 G4 _A2 | G4 G4 :|[M:2/2] F4 F4 | G2 G4 _E2 | D2 G2 ^F4 | %9
 ^F4 G4 | F2 _E4 D2 | C4 =B,4 | z2 G4 G2 | (G2 F2) G4 | z2 D2 F2 G2 | F2 F2 E4 | D4 F4 | F2 G4 F2 | %18
 F8 | F8 |] %20
V:3
 D4 F4 | D2 C4 D2 | B,2 C2 D4 | D4 F4 | D2 B,4 F2 | D4 C4 :|[M:2/2] A,4 B,4 | _E2 D4 C2 | %8
 B,2 G,2 A,4 | D4 D4 | D2 B,4 B,2 | G,4 G,4 | %12
 z2"^3. Zu dir, Herr, schrei ich inniglich, \nwenn Angst und Not vorhanden.\nIch sprech: Du bist mein Zuversicht, \nmein Teil ins Lebens Lande!\nAch, Herr, vernimm die Rede mein, \nmerk auf mein sehnlich Klagen\nich muß sagen: \nDie Feind zu mächtig sein, \ndie mich so übel plagen.\n\n4. Ich leide Not und Ungefäll, \nhilf mir, daß ich nicht wanke,\nführ aus dem Kerker meine Seel, \ndaß ich dein'm Namen danke,\nso werden sich gerechte Leut \nzu mir sammeln mit Fleiße \nund dich preisen,\nder du mir alle Zeit \ndein hülf und Treu beweisest." B,4 B,2 | %13
 C4 D4 | z2 G,2 A,2 C2 | C2 =B,2 C4 | G,4 A,4 | B,2 B,4 B,2 | (B,2 A,G, A,4) | B,8 |] %20
V:4
 B,4 A,4 | B,2 F,4 D,2 | G,2 F,2 B,4 | G,4 F,4 | B,2 _E,4 F,2 | G,4 C,4 :|[M:2/2] F,4 B,4 | %7
 _E,2 G,4 C,2 | G,2 _E,2 D,4 | D,4 G,4 | D,2 _E,4 B,,2 | C,4 G,,4 | z2 G,4 _E,2 | _A,4 G,4 | %14
 z2 G,2 F,2 _E,2 | D,2 D,2 C,4 | G,4 F,4 | B,2 _E,4 B,,2 | F,8 | B,,8 |] %20

